X:29
T:O'Keefe's Slide
S:Bernie Waugh
R:Jig
M:6/8
L:1/8
K:E Dor
|:D|\
"Em"E2B ~B2A|"D"FDF A2F|"Em"E2B ~B2A|"Bm"F2D DEF|
"Em"E2B ~B2A|"D"FDF A2F|"Bm"FDF A2B|"Em"~F2E E2:|
|:A|\
"Em"B2e e2f|"G"~e2d B2A|"Em"B2e e2f|"Bm"~e2d B2c|
"G"d2e "C"d2B|"D"AFE D2E|"Bm"FEF A2B|"Em"~F2E E2:|

